X:7
T:Fishers Hornpipe (Craig 7)
M:C
L:1/8
B:Empire Violin Collection of Hornpipes
H:Published by Thomas Craig
H:Music Publisher, &c.
H:George Street, Aberdeen, N.B.
Z:Peter Dunk December 2011
R:hornpipe
Q:1/4=140
K:D
(3 ABc | dAFA GBAG | FAFA GBAG | FDFD GEGE | FDFD E2 (3ABc |!
dAFA GBAG | FAFA GBAG | FAdA fedc | d2d2d2 :|!
|: (cd) | ecAc ecge | fdAd fdaf | ecAc ecgf | edcB A2A2 |!
BGDG BGdB | AFDF AFdA | BdcB AGFE | D2D2D2 :|
